X: 19467
T: Jackson's Mare
R: reel
M: 4/4
K: Fdorian
|:d2 A=B B2 AG|_G=GAc A2 =B c|d2 A=B B2 AG|_BAdc =B=G G2|
dgg_g =g2 a^f|_g=g a_g =g3 a|=bga_g =g2 ag|_gdcA AG G2:|
|:c2 ac cfaf|efga befa|befa c2 fa|(3gab eg gf f2|
c=BcA FGAF|GABc dD D2|c=BcA FG A2|bgge gf f2:|

